!!!OTL: LINCHEN GING EINMAL SPAZIEREN
!!!ARE: Europa, Mitteleuropa, Deutschland, Uckermark
!!!SCT: E0712A
!!!YEM: Copyright 1995, estate of Helmut Schaffrath.
**kern
*ICvox
*Ivox
*M2/4
*k[f#c#g#]
*A:
=1
{8e
8a
8a
8a
=2
8g#
8b
8a
8e}
=3
{8a
8a
8cc#
16ee
16cc#
=4
4b
4r}
=5
{8dd
8dd
8dd
16cc#
16b
=6
8cc#
8ee
8a
8a}
=7
{16b
16dd
16cc#
16b
8a
8g#
=8
4a
4r}
==
!!!AGN: Liebes - Lied, Leid, Klage
!!!ONB: ESAC (Essen Associative Code) Database: ERK2
!!!AMT: simple duple
!!!AIN: vox
!!!EED: Helmut Schaffrath
!!!EEV: 1.0
*-
